X:102 
T:Colbagh breac 
C:Thos Kinrade (Fiddler) Ramsey, at 73. Played on fiddle. 
C:Traditional
O:Isle of Man
Z:Clague Coll.
B:Kiaull Vannin #228 
L:1/8
M:6/8 
Q:180 
K:D 
F6 ||:d2B c2A|F2A A2F|A3 F3|d2B c2A|F2B B2A| B3 F3:|| 
F2{GF}E D2E|F2A A2F|A3 F3|F2E D2E|F2B B2A|B3 F3| 
d2B c2A|F2A A2F|A3 F3|d2B c2A|F2B B2A|B3 B2z|| 

